theory/intervals/second-seventh/images/Major_second_on_C.svg

<svg height="252pt" viewBox="0 0 539 252" width="539pt" xmlns="http://www.w3.org/2000/svg"><g fill="#fff"><path d="m0 0h539v252h-539zm88.72 29.66c-7.68 12.93-10.29 28.46-9.29 43.34-19.14 0-38.29 0-57.43 0v3h57.53c.52 4.02 1.33 7.99 2.06 11.97-4.76 4.24-9.63 8.37-14 13.02-15.2.02-30.39.01-45.59.01v4c13.92 0 27.83-.01 41.75 0-6.49 7.21-12.38 15.09-16.33 23.99-8.47.02-16.95.01-25.42.01v4h23.75c-2.41 7.72-3.52 16.15-1.04 24-7.57-.01-15.14 0-22.71 0v4c8.09-.01 16.18.02 24.27-.02 6.42 12.39 18.67 21.17 32.25 24-18.84.05-37.68 0-56.52.02v4h80.78c1.08 6.01 2.76 11.93 3.4 18.01.47 9.2-6.98 16.99-15.31 19.71-6.05 2.23-12.79 1.45-18.58-1.16 5.55-.97 11.77-3.42 14.14-8.96 3.04-7.15-1.49-15.9-8.56-18.51-6.35-2-13.41 1.97-15.83 8-3.72 8.99 1.64 20.11 10.73 23.3 13.41 4.91 31.32-1.9 35.53-16.21 2.2-8.09-1.29-16.21-2.52-24.18 65-.02 130 .03 195-.02-4.94 1.97-10.37 4.81-12.26 10.15-1.67 4.97 1.24 10.02 5.19 12.92-1.46-.03-2.91-.06-4.36-.08-5.38-8.25-16.03-11.06-25.36-11.09-9.21.28-19.99 2.63-25.11 11.1-4.96.04-9.92.01-14.88.02v6c4.69 0 9.39-.01 14.09.01 1.69 6.54 8.09 10.3 14.26 11.78 8.94 2.14 18.57 1.8 27.26-1.23 4.94-1.65 9.37-5.33 10.62-10.56h14.72l.1-1.59c9.33 1.41 19.39.97 27.94-3.38 4.94-2.44 8.54-8.23 6.78-13.77-2.01-5.41-7.55-8.26-12.58-10.29 65.6.07 131.21.01 196.81.03 0-38.67 0-77.33 0-116-137.7 0-275.4 0-413.11 0 1.41-6.2 2.08-12.63 1.27-18.96-1.52-12.63-7.58-24.18-14.87-34.41-3.32 2.92-6.31 6.22-8.57 10.03z"/><path d="m90.98 41.98c2.04-3.56 5.72-7.31 10.24-6.02 4.01 3.84 6.09 9.54 5.62 15.06-.55 8.28-5.07 15.6-10.03 21.99-4.56-.02-9.13 0-13.69-.02.53-10.67 2.3-21.71 7.86-31.01z"/><path d="m83.05 76.01c3.75-.02 7.49-.01 11.24-.01-3.24 3.56-6.67 6.95-10.24 10.17-.58-3.36-.92-6.75-1-10.16z"/><path d="m109.95 76c131.35-.01 262.7 0 394.05 0v25c-136.86 0-273.72 0-410.57 0 7.13-7.09 13.27-15.39 16.52-25z"/><path d="m509 76h10v25c-3.34 0-6.67 0-10 0 0-8.33 0-16.67 0-25z"/><path d="m88.35 105h415.65v24c-136.98 0-273.96 0-410.95 0-1.5-8.01-3.67-15.91-4.7-24z"/><path d="m509 105h10v24c-3.34 0-6.67 0-10 0 0-8 0-16 0-24z"/><path d="m63.08 128.99c6.33-8.33 14.31-15.21 22.55-21.57 1.51 7.19 3.02 14.38 4.52 21.58-9.02 0-18.04.01-27.07-.01z"/><path d="m60.26 132.99c7.27.01 14.54.02 21.81 0-8.37 4.73-14.64 14.11-13.03 24.01-5.06 0-10.11 0-15.17 0-1.11-8.48 1.83-16.95 6.39-24.01z"/><path d="m111.93 132.99c130.69.02 261.38 0 392.07.01v24c-126.48 0-252.96 0-379.44 0 .43-9.57-4.53-18.93-12.63-24.01z"/><path d="m509 133h10v24c-3.34 0-6.67 0-10 0 0-8 0-16 0-24z"/><path d="m95.72 141.36c3.68-.25 7.55.1 10.68 2.23 4.73 2.87 7.39 8.09 8.41 13.38-5.26.06-10.52.02-15.79.03-1.1-5.21-2.23-10.42-3.3-15.64z"/><path d="m76.3 156.97c.22-8.74 8.73-14.09 16.6-15.11 1.08 5.04 2.11 10.09 3.17 15.14-6.59-.02-13.18.03-19.77-.03z"/><path d="m54.73 161.01c5.23-.02 10.45-.01 15.67 0 3.02 5.69 9.02 8.95 15.19 10.09-3.63-2.6-6.99-5.77-8.56-10.06 6.62-.08 13.25-.02 19.87-.04 1.37 6.55 2.75 13.09 4.09 19.65-17.16 8.03-40.57-1.18-46.26-19.64z"/><path d="m99.87 161c4.98.01 9.95-.02 14.93.02-.46 7.47-5.38 13.62-11.11 17.98-1.27-6-2.55-12-3.82-18z"/><path d="m123.87 161h380.13v24c-133.07 0-266.14-.01-399.21.01-.05-.6-.16-1.79-.21-2.39 8.7-4.59 16.65-11.83 19.29-21.62z"/><path d="m509 161h10v24c-3.34 0-6.67 0-10 0 0-8 0-16 0-24z"/><path d="m98.3 184.15c1.03-.73 2.67-.72 3.82-.24.44 1.87-3.41 1.7-3.82.24z"/><path d="m304.49 190.65c3.79-1.73 8.26-1.54 12.22-.47 5.17 1.53 8.06 6.61 9.97 11.29 1.22 3.11 2.38 7.13-.18 9.9-3.46 3.48-8.86 3.47-13.41 3.1-6.42-1.44-11.25-7.38-12.56-13.67-.75-3.7.1-8.52 3.96-10.15z"/><path d="m253.31 205.3c3.97-2.46 9.06-2.28 13.42-1.11 3.9 1.07 6.45 4.45 8.37 7.78-8.31.05-16.63.04-24.95.01.4-2.46.95-5.18 3.16-6.68z"/><path d="m251.36 218.03c8.76-.06 17.53-.03 26.29-.02.35 2.32.83 4.93-.79 6.92-3.08 3.73-8.41 3.82-12.84 3.66-5.88-.63-10.18-5.54-12.66-10.56z"/></g><path d="m88.72 29.66c2.26-3.81 5.25-7.11 8.57-10.03 7.29 10.23 13.35 21.78 14.87 34.41.81 6.33.14 12.76-1.27 18.96h413.11v116c-65.6-.02-131.21.04-196.81-.03 5.03 2.03 10.57 4.88 12.58 10.29 1.76 5.54-1.84 11.33-6.78 13.77-8.55 4.35-18.61 4.79-27.94 3.38l-.1 1.59c-4.9 0-9.81 0-14.72 0-1.25 5.23-5.68 8.91-10.62 10.56-8.69 3.03-18.32 3.37-27.26 1.23-6.17-1.48-12.57-5.24-14.26-11.78-4.7-.02-9.4-.01-14.09-.01 0-2 0-4 0-6 4.96-.01 9.92.02 14.88-.02 5.12-8.47 15.9-10.82 25.11-11.1 9.33.03 19.98 2.84 25.36 11.09 1.45.02 2.9.05 4.36.08-3.95-2.9-6.86-7.95-5.19-12.92 1.89-5.34 7.32-8.18 12.26-10.15-65 .05-130 0-195 .02 1.23 7.97 4.72 16.09 2.52 24.18-4.21 14.31-22.12 21.12-35.53 16.21-9.09-3.19-14.45-14.31-10.73-23.3 2.42-6.03 9.48-10 15.83-8 7.07 2.61 11.6 11.36 8.56 18.51-2.37 5.54-8.59 7.99-14.14 8.96 5.79 2.61 12.53 3.39 18.58 1.16 8.33-2.72 15.78-10.51 15.31-19.71-.64-6.08-2.32-12-3.4-18.01-26.93 0-53.85 0-80.78 0 0-1.34 0-2.67 0-4 18.84-.02 37.68.03 56.52-.02-13.58-2.83-25.83-11.61-32.25-24-8.09.04-16.18.01-24.27.02 0-1.34 0-2.67 0-4 7.57 0 15.14-.01 22.71 0-2.48-7.85-1.37-16.28 1.04-24-7.92 0-15.83 0-23.75 0 0-1.34 0-2.67 0-4 8.47 0 16.95.01 25.42-.01 3.95-8.9 9.84-16.78 16.33-23.99-13.92-.01-27.83 0-41.75 0 0-1.33 0-2.67 0-4 15.2 0 30.39.01 45.59-.01 4.37-4.65 9.24-8.78 14-13.02-.73-3.98-1.54-7.95-2.06-11.97-19.18 0-38.35 0-57.53 0 0-.75 0-2.25 0-3h57.43c-1-14.88 1.61-30.41 9.29-43.34m2.26 12.32c-5.56 9.3-7.33 20.34-7.86 31.01 4.56.02 9.13 0 13.69.02 4.96-6.39 9.48-13.71 10.03-21.99.47-5.52-1.61-11.22-5.62-15.06-4.52-1.29-8.2 2.46-10.24 6.02m-7.93 34.03c.08 3.41.42 6.8 1 10.16 3.57-3.22 7-6.61 10.24-10.17-3.75 0-7.49-.01-11.24.01m26.9-.01c-3.25 9.61-9.39 17.91-16.52 25h410.57c0-8.33 0-16.67 0-25-131.35 0-262.7-.01-394.05 0m399.05 0v25h10c0-8.33 0-16.67 0-25-3.34 0-6.67 0-10 0m-420.65 29c1.03 8.09 3.2 15.99 4.7 24h410.95c0-8 0-16 0-24-138.55 0-277.1 0-415.65 0m420.65 0v24h10c0-8 0-16 0-24-3.34 0-6.67 0-10 0m-445.92 23.99c9.03.02 18.05.01 27.07.01-1.5-7.2-3.01-14.39-4.52-21.58-8.24 6.36-16.22 13.24-22.55 21.57m-2.82 4c-4.56 7.06-7.5 15.53-6.39 24.01h15.17c-1.61-9.9 4.66-19.28 13.03-24.01-7.27.02-14.54.01-21.81 0m51.67 0c8.1 5.08 13.06 14.44 12.63 24.01h379.44c0-8 0-16 0-24-130.69-.01-261.38.01-392.07-.01m397.07.01v24h10c0-8 0-16 0-24-3.34 0-6.67 0-10 0m-413.28 8.36c1.07 5.22 2.2 10.43 3.3 15.64 5.27-.01 10.53.03 15.79-.03-1.02-5.29-3.68-10.51-8.41-13.38-3.13-2.13-7-2.48-10.68-2.23m-19.42 15.61c6.59.06 13.18.01 19.77.03-1.06-5.05-2.09-10.1-3.17-15.14-7.87 1.02-16.38 6.37-16.6 15.11m-21.57 4.04c5.69 18.46 29.1 27.67 46.26 19.64-1.34-6.56-2.72-13.1-4.09-19.65-6.62.02-13.25-.04-19.87.04 1.57 4.29 4.93 7.46 8.56 10.06-6.17-1.14-12.17-4.4-15.19-10.09-5.22-.01-10.44-.02-15.67 0m45.14-.01c1.27 6 2.55 12 3.82 18 5.73-4.36 10.65-10.51 11.11-17.98-4.98-.04-9.95-.01-14.93-.02m24 0c-2.64 9.79-10.59 17.03-19.29 21.62.05.6.16 1.79.21 2.39 133.07-.02 266.14-.01 399.21-.01 0-8 0-16 0-24-126.71 0-253.42 0-380.13 0m385.13 0v24h10c0-8 0-16 0-24-3.34 0-6.67 0-10 0m-410.7 23.15c.41 1.46 4.26 1.63 3.82-.24-1.15-.48-2.79-.49-3.82.24m206.19 6.5c-3.86 1.63-4.71 6.45-3.96 10.15 1.31 6.29 6.14 12.23 12.56 13.67 4.55.37 9.95.38 13.41-3.1 2.56-2.77 1.4-6.79.18-9.9-1.91-4.68-4.8-9.76-9.97-11.29-3.96-1.07-8.43-1.26-12.22.47m-51.18 14.65c-2.21 1.5-2.76 4.22-3.16 6.68 8.32.03 16.64.04 24.95-.01-1.92-3.33-4.47-6.71-8.37-7.78-4.36-1.17-9.45-1.35-13.42 1.11m-1.95 12.73c2.48 5.02 6.78 9.93 12.66 10.56 4.43.16 9.76.07 12.84-3.66 1.62-1.99 1.14-4.6.79-6.92-8.76-.01-17.53-.04-26.29.02z"/></svg>

<?xml version="1.0" encoding="UTF-8" ?>
<!DOCTYPE svg PUBLIC "-//W3C//DTD SVG 1.1//EN" "http://www.w3.org/Graphics/SVG/1.1/DTD/svg11.dtd">
<svg width="539pt" height="252pt" viewBox="0 0 539 252" version="1.1" xmlns="http://www.w3.org/2000/svg">
<g id="#ffffffff">
<path fill="#ffffff" opacity="1.00" d=" M 0.00 0.00 L 539.00 0.00 L 539.00 252.00 L 0.00 252.00 L 0.00 0.00 M 88.72 29.66 C 81.04 42.59 78.43 58.12 79.43 73.00 C 60.29 73.00 41.14 73.00 22.00 73.00 C 22.00 73.75 22.00 75.25 22.00 76.00 C 41.18 76.00 60.35 76.00 79.53 76.00 C 80.05 80.02 80.86 83.99 81.59 87.97 C 76.83 92.21 71.96 96.34 67.59 100.99 C 52.39 101.01 37.20 101.00 22.00 101.00 C 22.00 102.33 22.00 103.67 22.00 105.00 C 35.92 105.00 49.83 104.99 63.75 105.00 C 57.26 112.21 51.37 120.09 47.42 128.99 C 38.95 129.01 30.47 129.00 22.00 129.00 C 22.00 130.33 22.00 131.66 22.00 133.00 C 29.92 133.00 37.83 133.00 45.75 133.00 C 43.34 140.72 42.23 149.15 44.71 157.00 C 37.14 156.99 29.57 157.00 22.00 157.00 C 22.00 158.33 22.00 159.66 22.00 161.00 C 30.09 160.99 38.18 161.02 46.27 160.98 C 52.69 173.37 64.94 182.15 78.52 184.98 C 59.68 185.03 40.84 184.98 22.00 185.00 C 22.00 186.33 22.00 187.66 22.00 189.00 C 48.93 189.00 75.85 189.00 102.78 189.00 C 103.86 195.01 105.54 200.93 106.18 207.01 C 106.65 216.21 99.20 224.00 90.87 226.72 C 84.82 228.95 78.08 228.17 72.29 225.56 C 77.84 224.59 84.06 222.14 86.43 216.60 C 89.47 209.45 84.94 200.70 77.87 198.09 C 71.52 196.09 64.46 200.06 62.04 206.09 C 58.32 215.08 63.68 226.20 72.77 229.39 C 86.18 234.30 104.09 227.49 108.30 213.18 C 110.50 205.09 107.01 196.97 105.78 189.00 C 170.78 188.98 235.78 189.03 300.78 188.98 C 295.84 190.95 290.41 193.79 288.52 199.13 C 286.85 204.10 289.76 209.15 293.71 212.05 C 292.25 212.02 290.80 211.99 289.35 211.97 C 283.97 203.72 273.32 200.91 263.99 200.88 C 254.78 201.16 244.00 203.51 238.88 211.98 C 233.92 212.02 228.96 211.99 224.00 212.00 C 224.00 214.00 224.00 216.00 224.00 218.00 C 228.69 218.00 233.39 217.99 238.09 218.01 C 239.78 224.55 246.18 228.31 252.35 229.79 C 261.29 231.93 270.92 231.59 279.61 228.56 C 284.55 226.91 288.98 223.23 290.23 218.00 C 295.14 218.00 300.05 218.00 304.95 218.00 L 305.05 216.41 C 314.38 217.82 324.44 217.38 332.99 213.03 C 337.93 210.59 341.53 204.80 339.77 199.26 C 337.76 193.85 332.22 191.00 327.19 188.97 C 392.79 189.04 458.40 188.98 524.00 189.00 C 524.00 150.33 524.00 111.67 524.00 73.00 C 386.30 73.00 248.60 73.00 110.89 73.00 C 112.30 66.80 112.97 60.37 112.16 54.04 C 110.64 41.41 104.58 29.86 97.29 19.63 C 93.97 22.55 90.98 25.85 88.72 29.66 Z" />
<path fill="#ffffff" opacity="1.00" d=" M 90.98 41.98 C 93.02 38.42 96.70 34.67 101.22 35.96 C 105.23 39.80 107.31 45.50 106.84 51.02 C 106.29 59.30 101.77 66.62 96.81 73.01 C 92.25 72.99 87.68 73.01 83.12 72.99 C 83.65 62.32 85.42 51.28 90.98 41.98 Z" />
<path fill="#ffffff" opacity="1.00" d=" M 83.05 76.01 C 86.80 75.99 90.54 76.00 94.29 76.00 C 91.05 79.56 87.62 82.95 84.05 86.17 C 83.47 82.81 83.13 79.42 83.05 76.01 Z" />
<path fill="#ffffff" opacity="1.00" d=" M 109.95 76.00 C 241.30 75.99 372.65 76.00 504.00 76.00 C 504.00 84.33 504.00 92.67 504.00 101.00 C 367.14 101.00 230.28 101.00 93.43 101.00 C 100.56 93.91 106.70 85.61 109.95 76.00 Z" />
<path fill="#ffffff" opacity="1.00" d=" M 509.00 76.00 C 512.33 76.00 515.66 76.00 519.00 76.00 C 519.00 84.33 519.00 92.67 519.00 101.00 C 515.66 101.00 512.33 101.00 509.00 101.00 C 509.00 92.67 509.00 84.33 509.00 76.00 Z" />
<path fill="#ffffff" opacity="1.00" d=" M 88.35 105.00 C 226.90 105.00 365.45 105.00 504.00 105.00 C 504.00 113.00 504.00 121.00 504.00 129.00 C 367.02 129.00 230.04 129.00 93.05 129.00 C 91.55 120.99 89.38 113.09 88.35 105.00 Z" />
<path fill="#ffffff" opacity="1.00" d=" M 509.00 105.00 C 512.33 105.00 515.66 105.00 519.00 105.00 C 519.00 113.00 519.00 121.00 519.00 129.00 C 515.66 129.00 512.33 129.00 509.00 129.00 C 509.00 121.00 509.00 113.00 509.00 105.00 Z" />
<path fill="#ffffff" opacity="1.00" d=" M 63.08 128.99 C 69.41 120.66 77.39 113.78 85.63 107.42 C 87.14 114.61 88.65 121.80 90.15 129.00 C 81.13 129.00 72.11 129.01 63.08 128.99 Z" />
<path fill="#ffffff" opacity="1.00" d=" M 60.26 132.99 C 67.53 133.00 74.80 133.01 82.07 132.99 C 73.70 137.72 67.43 147.10 69.04 157.00 C 63.98 157.00 58.93 157.00 53.87 157.00 C 52.76 148.52 55.70 140.05 60.26 132.99 Z" />
<path fill="#ffffff" opacity="1.00" d=" M 111.93 132.99 C 242.62 133.01 373.31 132.99 504.00 133.00 C 504.00 141.00 504.00 149.00 504.00 157.00 C 377.52 157.00 251.04 157.00 124.56 157.00 C 124.99 147.43 120.03 138.07 111.93 132.99 Z" />
<path fill="#ffffff" opacity="1.00" d=" M 509.00 133.00 C 512.33 133.00 515.66 133.00 519.00 133.00 C 519.00 141.00 519.00 149.00 519.00 157.00 C 515.66 157.00 512.33 157.00 509.00 157.00 C 509.00 149.00 509.00 141.00 509.00 133.00 Z" />
<path fill="#ffffff" opacity="1.00" d=" M 95.72 141.36 C 99.40 141.11 103.27 141.46 106.40 143.59 C 111.13 146.46 113.79 151.68 114.81 156.97 C 109.55 157.03 104.29 156.99 99.02 157.00 C 97.92 151.79 96.79 146.58 95.72 141.36 Z" />
<path fill="#ffffff" opacity="1.00" d=" M 76.30 156.97 C 76.52 148.23 85.03 142.88 92.90 141.86 C 93.98 146.90 95.01 151.95 96.07 157.00 C 89.48 156.98 82.89 157.03 76.30 156.97 Z" />
<path fill="#ffffff" opacity="1.00" d=" M 54.73 161.01 C 59.96 160.99 65.18 161.00 70.40 161.01 C 73.42 166.70 79.42 169.96 85.59 171.10 C 81.96 168.50 78.60 165.33 77.03 161.04 C 83.65 160.96 90.28 161.02 96.90 161.00 C 98.27 167.55 99.65 174.09 100.99 180.65 C 83.83 188.68 60.42 179.47 54.73 161.01 Z" />
<path fill="#ffffff" opacity="1.00" d=" M 99.87 161.00 C 104.85 161.01 109.82 160.98 114.80 161.02 C 114.34 168.49 109.42 174.64 103.69 179.00 C 102.42 173.00 101.14 167.00 99.87 161.00 Z" />
<path fill="#ffffff" opacity="1.00" d=" M 123.87 161.00 C 250.58 161.00 377.29 161.00 504.00 161.00 C 504.00 169.00 504.00 177.00 504.00 185.00 C 370.93 185.00 237.86 184.99 104.79 185.01 C 104.74 184.41 104.63 183.22 104.58 182.62 C 113.28 178.03 121.23 170.79 123.87 161.00 Z" />
<path fill="#ffffff" opacity="1.00" d=" M 509.00 161.00 C 512.33 161.00 515.66 161.00 519.00 161.00 C 519.00 169.00 519.00 177.00 519.00 185.00 C 515.66 185.00 512.33 185.00 509.00 185.00 C 509.00 177.00 509.00 169.00 509.00 161.00 Z" />
<path fill="#ffffff" opacity="1.00" d=" M 98.30 184.15 C 99.33 183.42 100.97 183.43 102.12 183.91 C 102.56 185.78 98.71 185.61 98.30 184.15 Z" />
<path fill="#ffffff" opacity="1.00" d=" M 304.49 190.65 C 308.28 188.92 312.75 189.11 316.71 190.18 C 321.88 191.71 324.77 196.79 326.68 201.47 C 327.90 204.58 329.06 208.60 326.50 211.37 C 323.04 214.85 317.64 214.84 313.09 214.47 C 306.67 213.03 301.84 207.09 300.53 200.80 C 299.78 197.10 300.63 192.28 304.49 190.65 Z" />
<path fill="#ffffff" opacity="1.00" d=" M 253.31 205.30 C 257.28 202.84 262.37 203.02 266.73 204.19 C 270.63 205.26 273.18 208.64 275.10 211.97 C 266.79 212.02 258.47 212.01 250.15 211.98 C 250.55 209.52 251.10 206.80 253.31 205.30 Z" />
<path fill="#ffffff" opacity="1.00" d=" M 251.36 218.03 C 260.12 217.97 268.89 218.00 277.65 218.01 C 278.00 220.33 278.48 222.94 276.86 224.93 C 273.78 228.66 268.45 228.75 264.02 228.59 C 258.14 227.96 253.84 223.05 251.36 218.03 Z" />
</g>
<g id="#000000ff">
<path fill="#000000" opacity="1.00" d=" M 88.72 29.66 C 90.98 25.85 93.97 22.55 97.29 19.63 C 104.58 29.86 110.64 41.41 112.16 54.04 C 112.97 60.37 112.30 66.80 110.89 73.00 C 248.60 73.00 386.30 73.00 524.00 73.00 C 524.00 111.67 524.00 150.33 524.00 189.00 C 458.40 188.98 392.79 189.04 327.19 188.97 C 332.22 191.00 337.76 193.85 339.77 199.26 C 341.53 204.80 337.93 210.59 332.99 213.03 C 324.44 217.38 314.38 217.82 305.05 216.41 L 304.95 218.00 C 300.05 218.00 295.14 218.00 290.23 218.00 C 288.98 223.23 284.55 226.91 279.61 228.56 C 270.92 231.59 261.29 231.93 252.35 229.79 C 246.18 228.31 239.78 224.55 238.09 218.01 C 233.39 217.99 228.69 218.00 224.00 218.00 C 224.00 216.00 224.00 214.00 224.00 212.00 C 228.96 211.99 233.92 212.02 238.88 211.98 C 244.00 203.51 254.78 201.16 263.99 200.88 C 273.32 200.91 283.97 203.72 289.35 211.97 C 290.80 211.99 292.25 212.02 293.71 212.05 C 289.76 209.15 286.85 204.10 288.52 199.13 C 290.41 193.79 295.84 190.95 300.78 188.98 C 235.78 189.03 170.78 188.98 105.78 189.00 C 107.01 196.97 110.50 205.09 108.30 213.18 C 104.09 227.49 86.18 234.30 72.77 229.39 C 63.68 226.20 58.32 215.08 62.04 206.09 C 64.46 200.06 71.52 196.09 77.87 198.09 C 84.94 200.70 89.47 209.45 86.43 216.60 C 84.06 222.14 77.84 224.59 72.29 225.56 C 78.08 228.17 84.82 228.95 90.87 226.72 C 99.20 224.00 106.65 216.21 106.18 207.01 C 105.54 200.93 103.86 195.01 102.78 189.00 C 75.85 189.00 48.93 189.00 22.00 189.00 C 22.00 187.66 22.00 186.33 22.00 185.00 C 40.84 184.98 59.68 185.03 78.52 184.98 C 64.94 182.15 52.69 173.37 46.27 160.98 C 38.18 161.02 30.09 160.99 22.00 161.00 C 22.00 159.66 22.00 158.33 22.00 157.00 C 29.57 157.00 37.14 156.99 44.71 157.00 C 42.23 149.15 43.34 140.72 45.75 133.00 C 37.83 133.00 29.92 133.00 22.00 133.00 C 22.00 131.66 22.00 130.33 22.00 129.00 C 30.47 129.00 38.95 129.01 47.42 128.99 C 51.37 120.09 57.26 112.21 63.75 105.00 C 49.83 104.99 35.92 105.00 22.00 105.00 C 22.00 103.67 22.00 102.33 22.00 101.00 C 37.20 101.00 52.39 101.01 67.59 100.99 C 71.96 96.34 76.83 92.21 81.59 87.97 C 80.86 83.99 80.05 80.02 79.53 76.00 C 60.35 76.00 41.18 76.00 22.00 76.00 C 22.00 75.25 22.00 73.75 22.00 73.00 C 41.14 73.00 60.29 73.00 79.43 73.00 C 78.43 58.12 81.04 42.59 88.72 29.66 M 90.98 41.98 C 85.42 51.28 83.65 62.32 83.12 72.99 C 87.68 73.01 92.25 72.99 96.81 73.01 C 101.77 66.62 106.29 59.30 106.84 51.02 C 107.31 45.50 105.23 39.80 101.22 35.96 C 96.70 34.67 93.02 38.42 90.98 41.98 M 83.05 76.01 C 83.13 79.42 83.47 82.81 84.05 86.17 C 87.62 82.95 91.05 79.56 94.29 76.00 C 90.54 76.00 86.80 75.99 83.05 76.01 M 109.95 76.00 C 106.70 85.61 100.56 93.91 93.43 101.00 C 230.28 101.00 367.14 101.00 504.00 101.00 C 504.00 92.67 504.00 84.33 504.00 76.00 C 372.65 76.00 241.30 75.99 109.95 76.00 M 509.00 76.00 C 509.00 84.33 509.00 92.67 509.00 101.00 C 512.33 101.00 515.66 101.00 519.00 101.00 C 519.00 92.67 519.00 84.33 519.00 76.00 C 515.66 76.00 512.33 76.00 509.00 76.00 M 88.35 105.00 C 89.38 113.09 91.55 120.99 93.05 129.00 C 230.04 129.00 367.02 129.00 504.00 129.00 C 504.00 121.00 504.00 113.00 504.00 105.00 C 365.45 105.00 226.90 105.00 88.35 105.00 M 509.00 105.00 C 509.00 113.00 509.00 121.00 509.00 129.00 C 512.33 129.00 515.66 129.00 519.00 129.00 C 519.00 121.00 519.00 113.00 519.00 105.00 C 515.66 105.00 512.33 105.00 509.00 105.00 M 63.08 128.99 C 72.11 129.01 81.13 129.00 90.15 129.00 C 88.65 121.80 87.14 114.61 85.63 107.42 C 77.39 113.78 69.41 120.66 63.08 128.99 M 60.26 132.99 C 55.70 140.05 52.76 148.52 53.87 157.00 C 58.93 157.00 63.98 157.00 69.04 157.00 C 67.43 147.10 73.70 137.72 82.07 132.99 C 74.80 133.01 67.53 133.00 60.26 132.99 M 111.93 132.99 C 120.03 138.07 124.99 147.43 124.56 157.00 C 251.04 157.00 377.52 157.00 504.00 157.00 C 504.00 149.00 504.00 141.00 504.00 133.00 C 373.31 132.99 242.62 133.01 111.93 132.99 M 509.00 133.00 C 509.00 141.00 509.00 149.00 509.00 157.00 C 512.33 157.00 515.66 157.00 519.00 157.00 C 519.00 149.00 519.00 141.00 519.00 133.00 C 515.66 133.00 512.33 133.00 509.00 133.00 M 95.72 141.36 C 96.79 146.58 97.92 151.79 99.02 157.00 C 104.29 156.99 109.55 157.03 114.81 156.97 C 113.79 151.68 111.13 146.46 106.40 143.59 C 103.27 141.46 99.40 141.11 95.72 141.36 M 76.30 156.97 C 82.89 157.03 89.48 156.98 96.07 157.00 C 95.01 151.95 93.98 146.90 92.90 141.86 C 85.03 142.88 76.52 148.23 76.30 156.97 M 54.73 161.01 C 60.42 179.47 83.83 188.68 100.99 180.65 C 99.65 174.09 98.27 167.55 96.90 161.00 C 90.28 161.02 83.65 160.96 77.03 161.04 C 78.60 165.33 81.96 168.50 85.59 171.10 C 79.42 169.96 73.42 166.70 70.40 161.01 C 65.18 161.00 59.96 160.99 54.73 161.01 M 99.87 161.00 C 101.14 167.00 102.42 173.00 103.69 179.00 C 109.42 174.64 114.34 168.49 114.80 161.02 C 109.82 160.98 104.85 161.01 99.87 161.00 M 123.87 161.00 C 121.23 170.79 113.28 178.03 104.58 182.62 C 104.63 183.22 104.74 184.41 104.79 185.01 C 237.86 184.99 370.93 185.00 504.00 185.00 C 504.00 177.00 504.00 169.00 504.00 161.00 C 377.29 161.00 250.58 161.00 123.87 161.00 M 509.00 161.00 C 509.00 169.00 509.00 177.00 509.00 185.00 C 512.33 185.00 515.66 185.00 519.00 185.00 C 519.00 177.00 519.00 169.00 519.00 161.00 C 515.66 161.00 512.33 161.00 509.00 161.00 M 98.30 184.15 C 98.71 185.61 102.56 185.78 102.12 183.91 C 100.97 183.43 99.33 183.42 98.30 184.15 M 304.49 190.65 C 300.63 192.28 299.78 197.10 300.53 200.80 C 301.84 207.09 306.67 213.03 313.09 214.47 C 317.64 214.84 323.04 214.85 326.50 211.37 C 329.06 208.60 327.90 204.58 326.68 201.47 C 324.77 196.79 321.88 191.71 316.71 190.18 C 312.75 189.11 308.28 188.92 304.49 190.65 M 253.31 205.30 C 251.10 206.80 250.55 209.52 250.15 211.98 C 258.47 212.01 266.79 212.02 275.10 211.97 C 273.18 208.64 270.63 205.26 266.73 204.19 C 262.37 203.02 257.28 202.84 253.31 205.30 M 251.36 218.03 C 253.84 223.05 258.14 227.96 264.02 228.59 C 268.45 228.75 273.78 228.66 276.86 224.93 C 278.48 222.94 278.00 220.33 277.65 218.01 C 268.89 218.00 260.12 217.97 251.36 218.03 Z" />
</g>
</svg>
